!!!OTL: Katharinenlied (Band 1), S. 43
!!!id: P0787
**kern
*clefG2
*k[]
*a:
{4e
=1
4.a
8b
4cc
4a
=2
8.b
16g
4g}
4r
=3
{4cc
=4
4a
8e
8e
8d
8e
8f
8d
=5
4e}
=6
{4cc
4.dd
8ee
=7
4cc
8a
8a
8dd
8cc
[4b
=8
4b]}
=9
{8cc
8b
4a
4a
=10
4g#
4b
4a}
==
*-
!!!minrhy: 16
!!!meters: 4/4 ]  ZZ[4
!!!cut: Katharinenlied (Band 1), S. 43
!!!reg: Lothringen
!!!trd: PINCK, Louis: Verklingende Weisen, Bd 1, Metz 1928
!!!rhy1: X__  X__.X_X__X__  X_.XX__0__
!!!rhy2: X__  X__X_X_X_X_X_X_  X__
!!!key: P0787  16  A 4/4 ]  ZZ[4
!!!mod: ACHTTONSKALA MELODISCH MOLL OHNE 6]  AMBITUS[9
!!!kad: -7b-521
!!!akz: 13b2_1-4-5_43b42_1-71_
!!!fot: 'a__b__c__d__
!!!for: 'a__b__c__d__
!!!fok: '^a_\__^d_\__
!! PHRAS[AUFTAKTIG]
!!!fkt: geistliche, religiöse Lieder
!! LOTH VKL
!! PR[20] 2K[4] 2G[16] 3K[2] 3G[2] 4A[9] 4Ü[0] 5A[2] 6K[0] 6G[0]
!! 7K[0] 7G[0] 8A[0] MEHR[0] SI[36] ABS[45] SR[20] SP[16]
!! ST[16] 2k[7] 2g[29] 3k[7] 3g[0] 4d[0] 4ü[0] 5d[2] 6k[0] 6g[0]
!! 7k[0] 7g[0] 8d[0] mehr[0] si[44] dm[-8] sr[36] sp[9]
!! 1F[4] 2F[65] 3F[22] 4F[0] LF[0] 2P[4] 3P[4] 4P[0] TRI[0] DF[5] AB[49]
!! TF[0] U3K[0] U3[0] U4[0] U4Ü[0] U5[4] U6K[0] U6[0] U7K[0] U7[0]
!! N1[20] N2K[0] N2[28] N3K[0] N3[17] N4[17] N4Ü[0] N5[13] N6K[0] N6[0]
!!!n7k: 0] N7[0] O1[0] O2K[0] O2[0] O3K[0] O3[0] HÖ[0
